X: 4279
M: C
L: 1/8
K: D
(3ABc) |\
dcdf ecAc | dBGB AFDF |\
e>A A/A/A f>A A/A/A |
gfge (aA)A2 |\
(3ABc (3dcB (3ABG (3FGE | D2D2D2 ::\
d2 |\
cdef gfge | defg agaf |\
bgea fddf |
edcB A2(Ad) |\
cdef gfge | defg agaf |\
bgea fddf |[1 edcB A2 :|[2 edcB Agfe |]


